humanity-icon-theme/Humanity/mimes/24/application-vnd.ms-powerpoint.svg

<?xml version="1.0" encoding="UTF-8" standalone="no"?>
<!-- Created with Inkscape (http://www.inkscape.org/) -->
<svg
   xmlns:svg="http://www.w3.org/2000/svg"
   xmlns="http://www.w3.org/2000/svg"
   xmlns:xlink="http://www.w3.org/1999/xlink"
   version="1.0"
   width="24"
   height="24"
   id="svg3469">
  <defs
     id="defs3471">
    <linearGradient
       id="linearGradient5048">
      <stop
         id="stop5050"
         style="stop-color:#000000;stop-opacity:0"
         offset="0" />
      <stop
         id="stop5056"
         style="stop-color:#000000;stop-opacity:1"
         offset="0.5" />
      <stop
         id="stop5052"
         style="stop-color:#000000;stop-opacity:0"
         offset="1" />
    </linearGradient>
    <linearGradient
       x1="302.85715"
       y1="366.64789"
       x2="302.85715"
       y2="609.50507"
       id="linearGradient2673"
       xlink:href="#linearGradient5048"
       gradientUnits="userSpaceOnUse"
       gradientTransform="matrix(3.52071e-2,0,0,8.23529e-3,-0.724852,18.980551)" />
    <radialGradient
       cx="605.71429"
       cy="486.64789"
       r="117.14286"
       fx="605.71429"
       fy="486.64789"
       id="radialGradient2670"
       xlink:href="#linearGradient5060"
       gradientUnits="userSpaceOnUse"
       gradientTransform="matrix(-1.204859e-2,0,0,8.23529e-3,10.761206,18.980568)" />
    <linearGradient
       id="linearGradient5060">
      <stop
         id="stop5062"
         style="stop-color:#000000;stop-opacity:1"
         offset="0" />
      <stop
         id="stop5064"
         style="stop-color:#000000;stop-opacity:0"
         offset="1" />
    </linearGradient>
    <radialGradient
       cx="605.71429"
       cy="486.64789"
       r="117.14286"
       fx="605.71429"
       fy="486.64789"
       id="radialGradient2667"
       xlink:href="#linearGradient5060"
       gradientUnits="userSpaceOnUse"
       gradientTransform="matrix(1.204859e-2,0,0,8.23529e-3,13.238794,18.980568)" />
    <linearGradient
       id="linearGradient2490-113-580">
      <stop
         id="stop5567"
         style="stop-color:#71171c;stop-opacity:1"
         offset="0" />
      <stop
         id="stop5569"
         style="stop-color:#ed8137;stop-opacity:1"
         offset="1" />
    </linearGradient>
    <linearGradient
       x1="-51.786404"
       y1="53.623615"
       x2="-51.786404"
       y2="2.9062471"
       id="linearGradient2664"
       xlink:href="#linearGradient2490-113-580"
       gradientUnits="userSpaceOnUse"
       gradientTransform="matrix(0.3922137,0,0,0.4473607,29.199293,-1.2386986)" />
    <linearGradient
       id="linearGradient5344-867">
      <stop
         id="stop5559"
         style="stop-color:#f9c590;stop-opacity:1"
         offset="0" />
      <stop
         id="stop5561"
         style="stop-color:#f19860;stop-opacity:1"
         offset="0.39698008" />
      <stop
         id="stop5563"
         style="stop-color:#ce5d36;stop-opacity:1"
         offset="1" />
    </linearGradient>
    <radialGradient
       cx="14.239056"
       cy="11.49049"
       r="18.000002"
       fx="14.239056"
       fy="11.49049"
       id="radialGradient2662"
       xlink:href="#linearGradient5344-867"
       gradientUnits="userSpaceOnUse"
       gradientTransform="matrix(0,1.5890979,-2.5735756,0,36.378536,-19.497874)" />
    <linearGradient
       id="linearGradient4000-159-371">
      <stop
         id="stop5573"
         style="stop-color:#000000;stop-opacity:1"
         offset="0" />
      <stop
         id="stop5575"
         style="stop-color:#000000;stop-opacity:0"
         offset="1" />
    </linearGradient>
    <linearGradient
       x1="75.854454"
       y1="28"
       x2="91"
       y2="12"
       id="linearGradient3467"
       xlink:href="#linearGradient4000-159-371"
       gradientUnits="userSpaceOnUse"
       gradientTransform="matrix(0.5586662,0,0,0.4447519,-29.22209,3.6590208)"
       spreadMethod="reflect" />
    <linearGradient
       id="linearGradient5293-366-550">
      <stop
         id="stop5579"
         style="stop-color:#ffffff;stop-opacity:1"
         offset="0" />
      <stop
         id="stop5581"
         style="stop-color:#ffffff;stop-opacity:0"
         offset="1" />
    </linearGradient>
    <linearGradient
       x1="75.854454"
       y1="28"
       x2="91"
       y2="12"
       id="linearGradient3464"
       xlink:href="#linearGradient5293-366-550"
       gradientUnits="userSpaceOnUse"
       gradientTransform="matrix(0.5586662,0,0,0.4447519,-29.16138,2.6052583)"
       spreadMethod="reflect" />
    <linearGradient
       x1="53.39983"
       y1="70.079262"
       x2="106.99174"
       y2="-18.244389"
       id="linearGradient3461"
       xlink:href="#linearGradient2490-113-373"
       gradientUnits="userSpaceOnUse"
       gradientTransform="matrix(0.1952247,0,0,0.1554176,1.7817003,11.642218)"
       spreadMethod="reflect" />
    <linearGradient
       id="linearGradient3211">
      <stop
         id="stop3213"
         style="stop-color:#ffffff;stop-opacity:1"
         offset="0" />
      <stop
         id="stop3215"
         style="stop-color:#ffffff;stop-opacity:0"
         offset="1" />
    </linearGradient>
    <linearGradient
       x1="24"
       y1="1.9999999"
       x2="24"
       y2="46.01725"
       id="linearGradient2659"
       xlink:href="#linearGradient3211"
       gradientUnits="userSpaceOnUse"
       gradientTransform="matrix(0.4545444,0,0,0.4651153,1.0909345,0.3372293)" />
    <linearGradient
       id="linearGradient8589">
      <stop
         id="stop8591"
         style="stop-color:#fefefe;stop-opacity:1"
         offset="0" />
      <stop
         id="stop8593"
         style="stop-color:#cbcbcb;stop-opacity:1"
         offset="1" />
    </linearGradient>
    <linearGradient
       x1="32.892288"
       y1="8.0590115"
       x2="36.358372"
       y2="5.4565363"
       id="linearGradient2655"
       xlink:href="#linearGradient8589"
       gradientUnits="userSpaceOnUse"
       gradientTransform="matrix(0.4778466,0,0,0.5524833,0.3722548,-7.61283e-2)" />
    <linearGradient
       id="linearGradient8265-821-176-38-919-66-249">
      <stop
         id="stop2687"
         style="stop-color:#ffffff;stop-opacity:1"
         offset="0" />
      <stop
         id="stop2689"
         style="stop-color:#ffffff;stop-opacity:0"
         offset="1" />
    </linearGradient>
    <linearGradient
       x1="16.626165"
       y1="15.298182"
       x2="20.054544"
       y2="24.627615"
       id="linearGradient2652"
       xlink:href="#linearGradient8265-821-176-38-919-66-249"
       gradientUnits="userSpaceOnUse"
       gradientTransform="matrix(0.3482993,0,0,0.6967199,3.640816,-3.1585463)" />
    <linearGradient
       id="linearGradient2490-113-373">
      <stop
         id="stop5625"
         style="stop-color:#71171c;stop-opacity:1"
         offset="0" />
      <stop
         id="stop5627"
         style="stop-color:#ec7422;stop-opacity:1"
         offset="1" />
    </linearGradient>
    <linearGradient
       x1="24.239185"
       y1="42.236279"
       x2="24.239185"
       y2="1.5977496"
       id="linearGradient2602"
       xlink:href="#linearGradient2490-113-373"
       gradientUnits="userSpaceOnUse"
       gradientTransform="matrix(0.4950383,0,0,0.5048857,2.643142,-0.4966344)" />
  </defs>
  <g
     id="layer1">
    <rect
       width="17"
       height="1.9999981"
       x="3.5000005"
       y="21.999998"
       id="rect2879"
       style="opacity:0.15;fill:url(#linearGradient2673);fill-opacity:1;fill-rule:nonzero;stroke:none;stroke-width:1;marker:none;visibility:visible;display:inline;overflow:visible" />
    <path
       d="M 3.5,22.000086 C 3.5,22.000086 3.5,23.999975 3.5,23.999975 C 2.8795275,24.00374 2,23.551901 2,22.999901 C 2,22.447902 2.6924,22.000086 3.5,22.000086 z"
       id="path2881"
       style="opacity:0.15;fill:url(#radialGradient2670);fill-opacity:1;fill-rule:nonzero;stroke:none;stroke-width:1;marker:none;visibility:visible;display:inline;overflow:visible" />
    <path
       d="M 20.5,22.000086 C 20.5,22.000086 20.5,23.999975 20.5,23.999975 C 21.120472,24.003775 22,23.551901 22,22.999901 C 22,22.447902 21.307599,22.000086 20.5,22.000086 L 20.5,22.000086 z"
       id="path2883"
       style="opacity:0.15;fill:url(#radialGradient2667);fill-opacity:1;fill-rule:nonzero;stroke:none;stroke-width:1;marker:none;visibility:visible;display:inline;overflow:visible" />
    <path
       d="M 3.4999617,0.49996097 C 7.3955416,0.49996097 11.104417,0.49996097 15,0.49996097 C 15.683368,0.73725787 19.541325,3.628131 20.5,5.5 C 20.5,11.229157 20.500039,16.770881 20.500039,22.500039 C 14.833346,22.500039 9.1666545,22.500039 3.4999617,22.500039 C 3.4999617,15.166679 3.4999617,7.8333189 3.4999617,0.49996097 L 3.4999617,0.49996097 z"
       id="path4160"
       style="fill:url(#radialGradient2662);fill-opacity:1;fill-rule:nonzero;stroke:url(#linearGradient2664);stroke-width:0.9999218;stroke-linecap:butt;stroke-linejoin:round;marker:none;marker-start:none;marker-mid:none;marker-end:none;stroke-miterlimit:4;stroke-dasharray:none;stroke-dashoffset:0;stroke-opacity:1;visibility:visible;display:inline;overflow:visible;enable-background:accumulate" />
    <path
       d="M 9.606062,7.999999 C 7.7370937,10.476383 5.8689701,12.955911 4.0000018,15.432296 C 4.0000018,17.953786 4.0000018,20.478509 4.0000018,22.999999 C 8.4394061,22.999999 12.878779,22.999999 17.318182,22.999999 C 18.546433,21.372562 18.735752,21.124482 20.000001,19.449347 C 20.000001,17.16271 20.000001,14.884857 20.000001,12.588766 C 16.331571,10.968541 11.988268,9.0521401 9.606062,7.999999 z"
       id="path3743"
       style="opacity:0.1;fill:url(#linearGradient3467);fill-opacity:1;fill-rule:nonzero;stroke:none;stroke-width:0.91176528;stroke-linecap:butt;stroke-linejoin:miter;marker:none;marker-start:none;marker-mid:none;marker-end:none;stroke-miterlimit:4;stroke-dasharray:none;stroke-dashoffset:0;stroke-opacity:1;visibility:visible;display:inline;overflow:visible;enable-background:accumulate" />
    <path
       d="M 9.606062,7 C 7.7370937,9.4763847 5.8689701,11.955912 4.0000018,14.432297 C 4.0000018,16.953786 4.0000018,19.47851 4.0000018,22 C 8.4394061,22 12.878779,22 17.318182,22 C 18.546433,20.372563 18.735752,20.124483 20.000001,18.449348 C 20.000001,16.16271 20.000001,13.884858 20.000001,11.588766 C 16.331571,9.9685419 11.988268,8.0521411 9.606062,7 z"
       id="path3697"
       style="opacity:0.4;fill:url(#linearGradient3464);fill-opacity:1;fill-rule:nonzero;stroke:none;stroke-width:0.91176528;stroke-linecap:butt;stroke-linejoin:miter;marker:none;marker-start:none;marker-mid:none;marker-end:none;stroke-miterlimit:4;stroke-dasharray:none;stroke-dashoffset:0;stroke-opacity:1;visibility:visible;display:inline;overflow:visible;enable-background:accumulate" />
    <path
       d="M 13.380064,14.550182 C 12.33988,15.845813 12.753034,17.473039 14.302283,18.182382 C 15.851531,18.891727 17.9531,18.415898 18.993284,17.120266 C 20.033468,15.824635 19.620314,14.197409 18.071065,13.488065 C 16.521817,12.778722 14.420248,13.25455 13.380064,14.550182 z M 16.186674,15.835224 L 17.966377,13.618463 C 19.185693,14.176742 19.681251,15.302464 19.206065,16.431922 L 16.186674,15.835224 z"
       id="path5975"
       style="opacity:0.3;fill:url(#linearGradient3461);fill-opacity:1;fill-rule:nonzero;stroke:none;stroke-width:0.91176528;stroke-linecap:butt;stroke-linejoin:miter;marker:none;marker-start:none;marker-mid:none;marker-end:none;stroke-miterlimit:4;stroke-dasharray:none;stroke-dashoffset:0;stroke-opacity:1;visibility:visible;display:inline;overflow:visible;enable-background:accumulate" />
    <path
       d="M 19.500001,5.6770357 C 19.500001,10.885341 19.500001,16.291693 19.500001,21.5 C 14.500001,21.5 9.5000012,21.5 4.5,21.5 C 4.5,14.83333 4.5,8.1666657 4.5,1.4999999 C 7.9372614,1.4999999 11.456499,1.4999999 14.893761,1.4999999"
       id="path2435"
       style="opacity:0.4;fill:none;stroke:url(#linearGradient2659);stroke-width:0.99999988;stroke-linecap:butt;stroke-linejoin:miter;stroke-miterlimit:4;stroke-dasharray:none;stroke-dashoffset:0;stroke-opacity:1;display:inline" />
    <path
       d="M 4.7619044,1.0000005 C 4.3410625,1.0000005 4,1.682244 4,2.5240739 L 4,13.671593 C 4.000965,13.765372 4.0215241,13.854055 4.0566849,13.916116 C 4.0918466,13.978178 4.1383962,14.007941 4.1850331,13.998178 L 19.858503,9.0340495 C 19.939128,9.008616 19.998873,8.870716 20,8.707462 L 20,5.7073203 C 20,5.7073203 14.901785,1.0000005 14.901785,1.0000005 L 4.7619044,1.0000005 z"
       id="path3879"
       style="opacity:0.2;fill:url(#linearGradient2652);fill-opacity:1;fill-rule:evenodd;stroke:none;stroke-width:1.00213289;stroke-linecap:round;stroke-linejoin:round;stroke-miterlimit:4;stroke-dasharray:none;stroke-dashoffset:0;stroke-opacity:1" />
    <path
       d="M 11.286493,12.177589 C 12.003389,12.18277 12.834589,12.210226 13.357377,11.622551 C 13.757535,11.094903 13.761888,10.333307 13.543588,9.7283513 C 13.260796,9.0374193 12.448499,8.8934843 11.79277,8.9128333 C 11.624004,8.9128333 11.455249,8.9128333 11.286493,8.9128333 C 11.286493,10.001085 11.286493,11.089337 11.286493,12.177589 z M 15.999608,10.432373 C 16.014589,11.534914 15.600714,12.704786 14.667932,13.331941 C 13.70412,14.021553 12.492508,14.116582 11.351726,14.088301 C 11.209647,14.104119 11.322595,14.380021 11.286493,14.503914 C 11.286493,15.669276 11.286493,16.834638 11.286493,18 C 10.524325,18 9.762168,18 9,18 C 9,14.334041 9,10.668081 9,7.0021222 C 10.18553,7.0112632 11.371933,6.9817502 12.556796,7.0211632 C 13.692136,7.0928502 14.93483,7.4965613 15.550257,8.5445863 C 15.881792,9.1099313 15.99969,9.7808873 15.999608,10.432373 L 15.999608,10.432373 z"
       id="path3445"
       style="font-size:31.58494568px;font-style:normal;font-variant:normal;font-weight:bold;font-stretch:normal;opacity:0.4;fill:#ffffff;fill-opacity:1;stroke:none;stroke-width:1px;stroke-linecap:butt;stroke-linejoin:miter;stroke-opacity:1;font-family:Droid Sans;-inkscape-font-specification:Droid Sans Bold" />
    <path
       d="M 11.286493,11.177589 C 12.003389,11.18277 12.834589,11.210226 13.357377,10.622551 C 13.757535,10.094903 13.761888,9.3333073 13.543588,8.7283513 C 13.260796,8.0374193 12.448499,7.8934843 11.79277,7.9128333 C 11.624004,7.9128333 11.455249,7.9128333 11.286493,7.9128333 C 11.286493,9.0010853 11.286493,10.089337 11.286493,11.177589 z M 15.999608,9.4323733 C 16.014589,10.534914 15.600714,11.704786 14.667932,12.331941 C 13.70412,13.021553 12.492508,13.116582 11.351726,13.088301 C 11.209647,13.104119 11.322595,13.380021 11.286493,13.503914 C 11.286493,14.669276 11.286493,15.834638 11.286493,17 C 10.524325,17 9.762168,17 9,17 C 9,13.334041 9,9.6680813 9,6.0021222 C 10.18553,6.0112632 11.371933,5.9817502 12.556796,6.0211632 C 13.692136,6.0928502 14.93483,6.4965613 15.550257,7.5445863 C 15.881792,8.1099313 15.99969,8.7808873 15.999608,9.4323733 L 15.999608,9.4323733 z"
       id="path2595"
       style="font-size:31.58494568px;font-style:normal;font-variant:normal;font-weight:bold;font-stretch:normal;fill:url(#linearGradient2602);fill-opacity:1;stroke:none;stroke-width:1px;stroke-linecap:butt;stroke-linejoin:miter;stroke-opacity:1;font-family:Droid Sans;-inkscape-font-specification:Droid Sans Bold" />
    <path
       d="M 14.075474,1 C 15.231777,1.3287671 14.414533,5.6143789 14.414533,5.6143789 C 14.414533,5.6143789 18.929921,5.1866427 20.022243,6.809375 C 21.511396,9.0216317 19.954018,6.1742029 19.848796,5.9876778 C 19.092868,4.6476323 15.982456,1.4405918 14.803387,1.0464703 C 14.715155,1.0169778 14.519511,1 14.075474,1 z"
       id="path3370"
       style="opacity:0.2;fill:#000000;fill-opacity:1;fill-rule:evenodd;stroke:none;display:inline" />
    <path
       d="M 14,1 C 15.526166,1 15,5 15,5 C 15,5 19.992074,4.54674 19.992074,7 C 19.992074,6.4022581 20.047824,5.5215662 19.928004,5.3440674 C 19.088897,4.1010616 16.184239,1.4821803 15.129935,1.0464703 C 15.043957,1.0109384 14.444037,1 14,1 z"
       id="path4474"
       style="fill:url(#linearGradient2655);fill-opacity:1;fill-rule:evenodd;stroke:none;display:inline" />
  </g>
</svg>

<?xml version="1.0" encoding="UTF-8" standalone="no"?>
<!-- Created with Inkscape (http://www.inkscape.org/) -->
<svg id="svg3469" xmlns="http://www.w3.org/2000/svg" height="24" width="24" version="1.0" xmlns:xlink="http://www.w3.org/1999/xlink">
 <defs id="defs3471">
  <linearGradient id="linearGradient2673" y2="609.51" gradientUnits="userSpaceOnUse" x2="302.86" gradientTransform="matrix(.035207 0 0 .0082353 -.72485 18.981)" y1="366.65" x1="302.86">
   <stop id="stop5050" style="stop-opacity:0" offset="0"/>
   <stop id="stop5056" offset=".5"/>
   <stop id="stop5052" style="stop-opacity:0" offset="1"/>
  </linearGradient>
  <radialGradient id="radialGradient2670" xlink:href="#linearGradient5060" gradientUnits="userSpaceOnUse" cy="486.65" cx="605.71" gradientTransform="matrix(-.012049 0 0 .0082353 10.761 18.981)" r="117.14"/>
  <linearGradient id="linearGradient5060">
   <stop id="stop5062" offset="0"/>
   <stop id="stop5064" style="stop-opacity:0" offset="1"/>
  </linearGradient>
  <radialGradient id="radialGradient2667" xlink:href="#linearGradient5060" gradientUnits="userSpaceOnUse" cy="486.65" cx="605.71" gradientTransform="matrix(.012049 0 0 .0082353 13.239 18.981)" r="117.14"/>
  <linearGradient id="linearGradient2664" y2="2.9062" gradientUnits="userSpaceOnUse" x2="-51.786" gradientTransform="matrix(.39221 0 0 .44736 29.199 -1.2387)" y1="53.624" x1="-51.786">
   <stop id="stop5567" style="stop-color:#71171c" offset="0"/>
   <stop id="stop5569" style="stop-color:#ed8137" offset="1"/>
  </linearGradient>
  <radialGradient id="radialGradient2662" gradientUnits="userSpaceOnUse" cy="11.49" cx="14.239" gradientTransform="matrix(0 1.5891 -2.5736 0 36.379 -19.498)" r="18">
   <stop id="stop5559" style="stop-color:#f9c590" offset="0"/>
   <stop id="stop5561" style="stop-color:#f19860" offset=".39698"/>
   <stop id="stop5563" style="stop-color:#ce5d36" offset="1"/>
  </radialGradient>
  <linearGradient id="linearGradient3467" y2="12" spreadMethod="reflect" gradientUnits="userSpaceOnUse" x2="91" gradientTransform="matrix(.55867 0 0 .44475 -29.222 3.659)" y1="28" x1="75.854">
   <stop id="stop5573" offset="0"/>
   <stop id="stop5575" style="stop-opacity:0" offset="1"/>
  </linearGradient>
  <linearGradient id="linearGradient3464" y2="12" spreadMethod="reflect" gradientUnits="userSpaceOnUse" x2="91" gradientTransform="matrix(.55867 0 0 .44475 -29.161 2.6053)" y1="28" x1="75.854">
   <stop id="stop5579" style="stop-color:#fff" offset="0"/>
   <stop id="stop5581" style="stop-color:#fff;stop-opacity:0" offset="1"/>
  </linearGradient>
  <linearGradient id="linearGradient3461" y2="-18.244" xlink:href="#linearGradient2490-113-373" spreadMethod="reflect" gradientUnits="userSpaceOnUse" x2="106.99" gradientTransform="matrix(.19522 0 0 .15542 1.7817 11.642)" y1="70.079" x1="53.4"/>
  <linearGradient id="linearGradient2659" y2="46.017" gradientUnits="userSpaceOnUse" x2="24" gradientTransform="matrix(.45454 0 0 .46512 1.0909 .33723)" y1="2" x1="24">
   <stop id="stop3213" style="stop-color:#fff" offset="0"/>
   <stop id="stop3215" style="stop-color:#fff;stop-opacity:0" offset="1"/>
  </linearGradient>
  <linearGradient id="linearGradient2655" y2="5.4565" gradientUnits="userSpaceOnUse" x2="36.358" gradientTransform="matrix(.47785 0 0 .55248 .37225 -.076128)" y1="8.059" x1="32.892">
   <stop id="stop8591" style="stop-color:#fefefe" offset="0"/>
   <stop id="stop8593" style="stop-color:#cbcbcb" offset="1"/>
  </linearGradient>
  <linearGradient id="linearGradient2652" y2="24.628" gradientUnits="userSpaceOnUse" x2="20.055" gradientTransform="matrix(.34830 0 0 .69672 3.6408 -3.1585)" y1="15.298" x1="16.626">
   <stop id="stop2687" style="stop-color:#fff" offset="0"/>
   <stop id="stop2689" style="stop-color:#fff;stop-opacity:0" offset="1"/>
  </linearGradient>
  <linearGradient id="linearGradient2490-113-373">
   <stop id="stop5625" style="stop-color:#71171c" offset="0"/>
   <stop id="stop5627" style="stop-color:#ec7422" offset="1"/>
  </linearGradient>
  <linearGradient id="linearGradient2602" y2="1.5977" xlink:href="#linearGradient2490-113-373" gradientUnits="userSpaceOnUse" x2="24.239" gradientTransform="matrix(.49504 0 0 .50489 2.6431 -.49663)" y1="42.236" x1="24.239"/>
 </defs>
 <g id="layer1">
  <rect id="rect2879" style="opacity:.15;fill:url(#linearGradient2673)" height="2" width="17" y="22" x="3.5"/>
  <path id="path2881" style="opacity:.15;fill:url(#radialGradient2670)" d="m3.5 22v2c-0.6205 0.004-1.5-0.448-1.5-1s0.6924-1 1.5-1z"/>
  <path id="path2883" style="opacity:.15;fill:url(#radialGradient2667)" d="m20.5 22v2c0.62 0.004 1.5-0.448 1.5-1s-0.692-1-1.5-1z"/>
  <path id="path4160" style="stroke-linejoin:round;stroke-width:.99992;stroke:url(#linearGradient2664);fill:url(#radialGradient2662)" d="m3.5 0.49996h11.5c0.683 0.2373 4.541 3.1281 5.5 5v17h-17v-22-0.00004z"/>
  <path id="path3743" style="opacity:.1;fill:url(#linearGradient3467)" d="m9.6061 8c-1.869 2.476-3.7371 4.956-5.6061 7.432v7.568h13.318c1.228-1.627 1.418-1.876 2.682-3.551v-6.86c-3.668-1.62-8.012-3.5369-10.394-4.589z"/>
  <path id="path3697" style="opacity:.4;fill:url(#linearGradient3464)" d="m9.6061 7c-1.869 2.4764-3.7371 4.956-5.6061 7.432v7.568h13.318c1.228-1.627 1.418-1.876 2.682-3.551v-6.86c-3.668-1.6205-8.012-3.5369-10.394-4.589z"/>
  <path id="path5975" style="opacity:.3;fill:url(#linearGradient3461)" d="m13.38 14.55c-1.04 1.296-0.627 2.923 0.922 3.632 1.55 0.71 3.651 0.234 4.691-1.062 1.04-1.295 0.627-2.923-0.922-3.632s-3.651-0.233-4.691 1.062zm2.807 1.285l1.779-2.217c1.22 0.559 1.715 1.684 1.24 2.814l-3.019-0.597z"/>
  <path id="path2435" style="opacity:.4;stroke:url(#linearGradient2659);fill:none" d="m19.5 5.677v15.823h-15v-20h10.394"/>
  <path id="path3879" style="opacity:.2;fill:url(#linearGradient2652);fill-rule:evenodd" d="m4.7619 1c-0.4208 0-0.7619 0.6822-0.7619 1.5241v11.148c0.001 0.093 0.0215 0.182 0.0567 0.244 0.0351 0.062 0.0817 0.092 0.1283 0.082l15.674-4.964c0.08-0.0254 0.14-0.1633 0.141-0.3265v-3.0002l-5.098-4.7073h-10.14z"/>
  <path id="path3445" style="opacity:.4;fill:#fff" d="m11.286 12.178c0.717 0.005 1.549 0.032 2.071-0.555 0.401-0.528 0.405-1.29 0.187-1.8946-0.283-0.691-1.096-0.8349-1.751-0.8156h-0.507v3.2652zm4.714-1.746c0.015 1.103-0.399 2.273-1.332 2.9-0.964 0.69-2.175 0.785-3.316 0.756-0.142 0.016-0.029 0.292-0.066 0.416v3.496h-2.286v-10.998c1.186 0.0093 2.372-0.0202 3.557 0.0192 1.135 0.0717 2.378 0.4754 2.993 1.5234 0.332 0.5653 0.45 1.2363 0.45 1.8874z"/>
  <path id="path2595" style="fill:url(#linearGradient2602)" d="m11.286 11.178c0.717 0.005 1.549 0.032 2.071-0.555 0.401-0.528 0.405-1.2897 0.187-1.8946-0.283-0.691-1.096-0.8349-1.751-0.8156h-0.507v3.2652zm4.714-1.7456c0.015 1.1026-0.399 2.2726-1.332 2.8996-0.964 0.69-2.175 0.785-3.316 0.756-0.142 0.016-0.029 0.292-0.066 0.416v3.496h-2.286v-10.998c1.186 0.0093 2.372-0.0202 3.557 0.0192 1.135 0.0717 2.378 0.4754 2.993 1.5234 0.332 0.5653 0.45 1.2363 0.45 1.8878z"/>
  <path id="path3370" style="opacity:.2;fill-rule:evenodd" d="m14.075 1c1.157 0.3288 0.34 4.6144 0.34 4.6144s4.515-0.4278 5.607 1.195c1.489 2.2122-0.068-0.6352-0.173-0.8217-0.756-1.3401-3.867-4.5471-5.046-4.9412-0.088-0.0295-0.283-0.0465-0.728-0.0465z"/>
  <path id="path4474" style="fill:url(#linearGradient2655);fill-rule:evenodd" d="m14 1c1.526 0 1 4 1 4s4.992-0.4533 4.992 2c0-0.5977 0.056-1.4784-0.064-1.6559-0.839-1.243-3.744-3.8619-4.798-4.2976-0.086-0.0356-0.686-0.0465-1.13-0.0465z"/>
 </g>
</svg>
